!!!OTL: Tr&uuml;bsinn (106), S. 258
!!!id: T0268
**kern
*clefG2
*k[f#c#g#]
*A:
{8a
8a
8cc#
=1
4ee
4ff#
8ee
8dd
=2
8dd
8cc#
8cc#}
=3
{8cc#
8b
8cc#
=4
4dd
4ff#
8ee
8dd
=5
4cc#}
8r
=6
{8a
8g#
8f#
=7
4e
4f#
8e
8d
=8
4c#}
8r
=9
{8e
8a
8b
=10
4cc#
4cc#
8b
8b
=11
4a}
8r
=12
{8a
8g#
8a
=13
8b
8cc#
8b
8e
8a
8b
=14
8cc#
8dd
8cc#}
=15
{8a
8a
8cc#
=16
4ee
4ee
16ee
16dd
8dd
=17
4cc#}
8r
==
*-
!!!minrhy: 16
!!!meters: 3/4 ]  ZZ[6
!!!cut: Tr&uuml;bsinn (106), S. 258
!!!reg: Luxemburg
!!!trd: Singendes Volk, Esch-Alzette 1937 posth.
!!!rhy1: X_X_X_  X__X__X_X_  X_X_X_   (x2)
!!!rhy2: X_X_X_  X__X__X_X_  X__0
!!!key: T0268  16  A 3/4 ]  ZZ[6
!!!mod: HEPTATONIK IONISCH]  AMBITUS[11
!!!kad: 33-3133
!!!akz: 54_43_-5-3_31_23_53_
!!!fot: 'a__b__c__d__ds"aw_
!!!for: 'a__aw_aw_aw_b__c__
!!!fok: '^a_^__\__^a_~a_^a_
!! PHRAS[AUFTAKTIG]
!!!fkt: Liebeslieder
!!!bem: StraPen, fff Witry, 13.12.1932
!! THILL, Mathias:
!! PR[18] 2K[2] 2G[11] 3K[9] 3G[5] 4A[2] 4Ü[0] 5A[0] 6K[2] 6G[5]
!! 7K[0] 7G[0] 8A[0] MEHR[0] SI[36] ABS[44] SR[14] SP[23]
!! ST[12] 2k[11] 2g[27] 3k[0] 3g[0] 4d[2] 4ü[0] 5d[2] 6k[0] 6g[2]
!! 7k[0] 7g[0] 8d[0] mehr[0] si[45] dm[-9] sr[39] sp[7]
!! 1F[25] 2F[63] 3F[13] 4F[0] LF[0] 2P[0] 3P[0] 4P[0] TRI[0] DF[3] AB[48]
!! TF[0] U3K[0] U3[0] U4[0] U4Ü[0] U5[0] U6K[0] U6[0] U7K[0] U7[0]
!! N1[2] N2K[0] N2[0] N3K[0] N3[2] N4[0] N4Ü[0] N5[29] N6K[0] N6[11]
!!!n7k: 0] N7[11] O1[18] O2K[0] O2[13] O3K[0] O3[11] HÖ[2
!!!RNB: symbol: &uuml;  = u umlaut (UTF-8: Ã¼)
